X:1
T:Ain't Gonna Grieve My Lord No More
M:4/4
L:1/4
K:C
 c/2c/2| e/2e/2 c G c/2c/2| e/2e/2 c G c/2c/2| A/2A/2 c G c/2c/2| A/2A/2 c G|\
 c/2c/2| B c d c| B c d d/2d/2| c d e d/2d/2| c d e| z| z3 c| f/2f/2 f f c|\
 f/2f/2 f f f| e e e| c/2c/2| e e e e| g f/2e/2 d2-| d f e d| c4-|\
 c2 z||
